Adwaita++/places/16/bookmark-missing.svg

<svg fill="none" height="16" viewBox="0 0 16 16" width="16" xmlns="http://www.w3.org/2000/svg" xmlns:xlink="http://www.w3.org/1999/xlink">
  <clipPath id="clip0">
    <path d="m0 0h16v16h-16z"/>
  </clipPath>
  <g clip-path="url(#clip0)">
    <path d="m8.00001 0c-.72119.010036-1.23514.431772-1.47651 1.13194l.0078-.03133-1.13277 3.91326h-3.82018c-.0083-.00013-.01706-.00013-.02539 0-.45633.0144-.868255.22037-1.158156.56401-.626969.70071-.4934325 1.80396.302724 2.32655l3.003802 2.13857-1.16598 3.9853c-.0013.0039-.0027.0078-.0039.0117-.17814.5698-.01062 1.1573.43749 1.5589.0032.003.0084.0049.01172.0078.53848.4661 1.29416.5248 1.90227.139.01157-.0073.024-.0136.03515-.0215l3.08192-2.1679 3.0819 2.1679c.0112.0079.0236.0143.0352.0216.6081.3858 1.3638.327 1.9023-.1391.0033-.0029.0085-.0048.0117-.0078.4481-.4015.6156-.989.4375-1.5588-.0012-.0039-.0026-.0078-.0039-.0118l-1.166-3.9853 3.0038-2.13853c.7961-.52258.9297-1.62583.3027-2.32655-.2899-.34364-.7018-.54961-1.1582-.56401-.0083-.00013-.017-.00013-.0253 0h-3.8202l-1.13279-3.91326.00781.03133c-.24138-.700208-.75533-1.1219439-1.47651-1.13198z" fill="#e01b24"/>
  </g>
</svg>

<svg xmlns="http://www.w3.org/2000/svg" fill="none" width="16" height="16" viewBox="0 0 16 16">
 <g clip-path="url(#clip0)">
  <path fill="url(#paint0_linear)" d="M8.00001 0C7.27882 0.010036 6.76487 0.431772 6.5235 1.13194L6.5313 1.10061L5.39853 5.01387H1.57835C1.57005 5.01374 1.56129 5.01374 1.55296 5.01387C1.09663 5.02827 0.684705 5.23424 0.394804 5.57788C-0.232165 6.27859 -0.0986285 7.38184 0.697528 7.90443L3.70133 10.043L2.53535 14.0283C2.53405 14.0322 2.53265 14.0361 2.53145 14.04C2.35331 14.6098 2.52083 15.1973 2.96894 15.5989C2.97214 15.6019 2.97734 15.6038 2.98066 15.6067C3.51914 16.0728 4.27482 16.1315 4.88293 15.7457C4.8945 15.7384 4.90693 15.7321 4.91808 15.7242L8 13.5563L11.0819 15.7242C11.0931 15.7321 11.1055 15.7385 11.1171 15.7458C11.7252 16.1316 12.4809 16.0728 13.0194 15.6067C13.0227 15.6038 13.0279 15.6019 13.0311 15.5989C13.4792 15.1974 13.6467 14.6099 13.4686 14.0401C13.4674 14.0362 13.466 14.0323 13.4647 14.0283L12.2987 10.043L15.3025 7.90447C16.0986 7.38189 16.2322 6.27864 15.6052 5.57792C15.3153 5.23428 14.9034 5.02831 14.447 5.01391C14.4387 5.01378 14.43 5.01378 14.4217 5.01391H10.6015L9.46871 1.10065L9.47652 1.13198C9.23514 0.431772 8.72119 0.0100361 8.00001 0Z"/>
 </g>
 <defs>
  <linearGradient id="paint0_linear" x1="0" x2="16" y1="8" y2="8" gradientUnits="userSpaceOnUse">
   <stop stop-color="#E01B24"/>
  </linearGradient>
  <clipPath id="clip0">
   <rect fill="#fff" width="16" height="16"/>
  </clipPath>
 </defs>
</svg>
